!!!OTL: Gib mir die Blume (Band 1), S. 264
!!!id: P0869
**kern
*clefG2
*k[f#c#]
*D:
*M3/8
{8g
8g
8g
=2
4g
8a
=3
8g
8g
8f#
=4
4e}
=5
{8e
=6
8e
8e
8e
=7
4d
8B
=8
8d
8B
8c#
=9
4B}
8r
=10
{8e
8e
8d
=11
8.g
16g
8b
=12
8a
8g
8f#
=13
4e}
8r
=14
{8a
8g
8f#
=15
8.e
16e
8d
=16
8e
8d
8c#
=17
4d}
8r
==
*-
!!!minrhy: 16
!!!meters: 3/8 ]  ZZ[4
!!!cut: Gib mir die Blume (Band 1), S. 264
!!!reg: Lothringen
!!!trd: PINCK, Louis: Verklingende Weisen, Bd 1, Metz 1928
!!!rhy1: X_X_X_  X__X_  X_X_X_  X__   (x2)
!!!rhy2: X_  X_X_X_  X__X_  X_X_X_  X__0
!!!key: P0869  16  D 3/8 ]  ZZ[4
!!!mod: HEPTATONIK IONISCH]  AMBITUS[8
!!!kad: 2-621
!!!akz: 4442_211-6_2452_5221_
!!!fot: 'a__as"b__c__
!!!for: 'a__av_b__b__
!!!fok: '\__\__^__\__
!! PHRAS[VORWIEGEND VOLLTAKTIG]
!!!fkt: ???, Tanzlied, Walzer
!! LOTH VKL
!! PR[19] 2K[6] 2G[0] 3K[13] 3G[6] 4A[6] 4Ü[0] 5A[3] 6K[3] 6G[0]
!! 7K[0] 7G[0] 8A[0] MEHR[0] SI[39] ABS[31] SR[6] SP[32]
!! ST[8] 2k[6] 2g[13] 3k[0] 3g[0] 4d[0] 4ü[6] 5d[10] 6k[6] 6g[0]
!! 7k[0] 7g[0] 8d[0] mehr[0] si[42] dm[-3] sr[19] sp[23]
!! 1F[15] 2F[82] 3F[0] 4F[0] LF[0] 2P[3] 3P[0] 4P[0] TRI[0] DF[3] AB[34]
!! TF[0] U3K[0] U3[0] U4[0] U4Ü[0] U5[3] U6K[0] U6[0] U7K[0] U7[16]
!! N1[22] N2K[0] N2[16] N3K[0] N3[19] N4[6] N4Ü[0] N5[9] N6K[0] N6[3]
!!!n7k: 0] N7[0] O1[6] O2K[0] O2[0] O3K[0] O3[0] HÖ[0
